; generated by PrusaSlicer 2.6.1+MacOS-arm64 on 2024-07-26 at 13:14:39 UTC


;
;

;
;

;
;

;
;
; 

; external perimeters extrusion width = 0.40mm
; perimeters extrusion width = 0.40mm
; infill extrusion width = 0.40mm
; solid infill extrusion width = 0.40mm
; top infill extrusion width = 0.40mm
; support material extrusion width = 0.35mm
; first layer extrusion width = 0.50mm

M73 P0 R40
M201 X2500 Y2500 Z200 E2500 ; sets maximum accelerations, mm/sec^2
M203 X200 Y200 Z40 E100 ; sets maximum feedrates, mm / sec
M204 P2000 R1200 T2000 ; sets acceleration (P, T) and retract acceleration (R), mm/sec^2
M205 X8.00 Y8.00 Z2.00 E10.00 ; sets the jerk limits, mm/sec
M205 S0 T0 ; sets the minimum extruding and travel feed rate, mm/sec
;TYPE:Custom
M17 ; enable steppers
M862.3 P "MK4" ; printer model check
M862.1 P0.4 ; nozzle diameter check
M115 U5.1.2+13478
M555 X96.2077 Y87.5733 W57.5839 H30.8535

G90 ; use absolute coordinates
M83 ; extruder relative mode

M140 S60 ; set bed temp
M104 T0 S170 ; set extruder temp for bed leveling
M109 T0 R170 ; wait for temp

M84 E ; turn off E motor

G28 ; home all without mesh bed level

G1 X42 Y-4 Z5 F4800

M302 S160 ; lower cold extrusion limit to 160C


G1 E-2 F2400 ; retraction


M84 E ; turn off E motor

G29 P9 X10 Y-4 W32 H4

M106 S100

G0 Z40 F10000

M190 S60 ; wait for bed temp

M107

;
; MBL
;
M84 E ; turn off E motor
G29 P1 ; invalidate mbl & probe print area
G29 P1 X0 Y0 W50 H20 C ; probe near purge place
G29 P3.2 ; interpolate mbl probes
G29 P3.13 ; extrapolate mbl outside probe area
G29 A ; activate mbl

; prepare for purge
M104 S215
G0 X0 Y-4 Z15 F4800 ; move away and ready for the purge
M109 S215

G92 E0
M569 S0 E ; set spreadcycle mode for extruder

;
; Extrude purge line
;
G92 E0 ; reset extruder position
G1 E2 F2400 ; deretraction after the initial one before nozzle cleaning
G0 E7 X15 Z0.2 F500 ; purge
G0 X25 E4 F500 ; purge
G0 X35 E4 F650 ; purge
G0 X45 E4 F800 ; purge
G0 X48 Z0.05 F8000 ; wipe, move close to the bed
G0 X51 Z0.2 F8000 ; wipe, move quickly away from the bed

G92 E0
M221 S100 ; set flow to 100%
G21 ; set units to millimeters
G90 ; use absolute coordinates
M83 ; use relative distances for extrusion
M900 K0.05 ; Filament gcode



M142 S36 ; set heatbreak target temp
M107
;LAYER_CHANGE
;Z:0.2
;HEIGHT:0.2
;BEFORE_LAYER_CHANGE
G92 E0.0
;0.2


G1 E-.8 F2100
G1 Z.2 F720
;AFTER_LAYER_CHANGE
;0.2
; printing object charger_enclosure.stl id:0 copy 0
G1 Z.4
G1 X97.621 Y115.406 F12000
G1 Z.2 F720
G1 E.8 F1500
M204 P600
;TYPE:Perimeter
;WIDTH:0.499999
G1 F1200
G1 X97.584 Y114.94 E.01777
G1 X97.572 Y113.882 E.04021
G1 X97.574 Y95.359 E.70399
G1 X97.595 Y94.857 E.0191
G1 X97.685 Y94.384 E.0183
G1 X97.843 Y94.014 E.01529
G1 X98.067 Y93.686 E.0151
G1 X98.347 Y93.411 E.01492
G1 X98.704 Y93.179 E.01618
G1 X99.22 Y92.989 E.0209
G1 X100.015 Y92.939 E.03027
G1 X115.229 Y92.944 E.57823
G1 X115.834 Y92.973 E.02302
G1 X116.266 Y93.056 E.01672
G1 X116.61 Y93.203 E.01422
G1 X116.947 Y93.431 E.01546
G1 X117.223 Y93.712 E.01497
G1 X117.456 Y94.069 E.0162
G1 X117.645 Y94.586 E.02092
G1 X117.695 Y95.451 E.03293
G1 X117.695 Y114.641 E.72934
G1 X117.674 Y115.143 E.0191
G1 X117.583 Y115.617 E.01834
G1 X117.425 Y115.987 E.01529
G1 X117.201 Y116.315 E.0151
G1 X116.92 Y116.59 E.01494
G1 X116.575 Y116.816 E.01568
G1 X116.04 Y117.013 E.02167
G1 X115.575 Y117.05 E.01773
G1 X114.485 Y117.063 E.04143
G1 X100.002 Y117.061 E.55044
G1 X99.491 Y117.04 E.01944
G1 X99.018 Y116.949 E.01831
G1 X98.647 Y116.791 E.01533
G1 X98.32 Y116.567 E.01506
G1 X98.044 Y116.286 E.01497
G1 X97.818 Y115.94 E.01571
G1 X97.642 Y115.462 E.01936
M204 P1000
G1 X97.169 Y115.49 F12000
M204 P600
G1 F1200
G1 X97.128 Y114.961 E.02017
G1 X97.115 Y113.885 E.0409
G1 X97.119 Y95.29 E.70673
G1 X97.174 Y94.485 E.03067
G1 X97.325 Y94.008 E.01902
G1 X97.562 Y93.577 E.01869
G1 X97.874 Y93.205 E.01845
G1 X98.253 Y92.899 E.01851
G1 X98.684 Y92.673 E.0185
G1 X99.139 Y92.536 E.01806
G1 X100.001 Y92.482 E.03283
G1 X114.886 Y92.481 E.56572
G1 X115.59 Y92.493 E.02676
G1 X116.156 Y92.542 E.02159
G1 X116.626 Y92.69 E.01873
G1 X117.057 Y92.927 E.01869
G1 X117.43 Y93.24 E.01851
G1 X117.735 Y93.619 E.01849
G1 X117.962 Y94.049 E.01848
G1 X118.098 Y94.505 E.01809
G1 X118.152 Y95.451 E.03601
G1 X118.152 Y113.834 E.69867
G1 X118.14 Y114.951 E.04246
G1 X118.095 Y115.515 E.0215
G1 X117.944 Y115.992 E.01902
G1 X117.707 Y116.423 E.01869
G1 X117.395 Y116.795 E.01845
G1 X117.016 Y117.101 E.01851
G1 X116.585 Y117.327 E.0185
G1 X116.125 Y117.465 E.01825
G1 X115.595 Y117.507 E.02021
G1 X114.487 Y117.52 E.04211
G1 X100.769 Y117.518 E.52137
G1 X99.686 Y117.505 E.04116
G1 X99.12 Y117.46 E.02158
G1 X98.643 Y117.31 E.019
G1 X98.212 Y117.073 E.01869
G1 X97.839 Y116.76 E.01851
G1 X97.534 Y116.381 E.01849
G1 X97.307 Y115.951 E.01848
G1 X97.186 Y115.548 E.01599
M204 P1000
G1 X96.717 Y115.575 F12000
M204 P600
;TYPE:External perimeter
G1 F1200
G1 X96.671 Y114.981 E.02264
G1 X96.658 Y113.888 E.04154
G1 X96.663 Y95.271 E.70756
G1 X96.724 Y94.392 E.03349
G1 X96.902 Y93.827 E.02251
G1 X97.183 Y93.318 E.0221
G1 X97.553 Y92.877 E.02188
G1 X98.001 Y92.516 E.02187
G1 X98.51 Y92.247 E.02188
G1 X99.058 Y92.083 E.02174
G1 X99.986 Y92.025 E.03534
G1 X114.89 Y92.024 E.56645
G1 X115.614 Y92.036 E.02752
G1 X116.245 Y92.09 E.02407
G1 X116.807 Y92.268 E.02241
G1 X117.317 Y92.549 E.02213
G1 X117.758 Y92.918 E.02185
G1 X118.119 Y93.366 E.02187
G1 X118.387 Y93.876 E.0219
G1 X118.551 Y94.424 E.02174
G1 X118.609 Y95.451 E.03909
G1 X118.609 Y113.834 E.69867
G1 X118.596 Y114.97 E.04318
G1 X118.545 Y115.608 E.02433
G1 X118.367 Y116.173 E.02251
G1 X118.086 Y116.682 E.0221
G1 X117.716 Y117.123 E.02188
G1 X117.268 Y117.484 E.02187
G1 X116.759 Y117.753 E.02188
G1 X116.209 Y117.917 E.02181
G1 X115.616 Y117.964 E.02261
M73 P0 R39
G1 X114.49 Y117.977 E.0428
G1 X100.769 Y117.975 E.52148
G1 X99.667 Y117.962 E.04189
G1 X99.026 Y117.91 E.02444
G1 X98.462 Y117.732 E.02248
G1 X97.952 Y117.451 E.02213
G1 X97.511 Y117.082 E.02185
G1 X97.15 Y116.634 E.02187
G1 X96.882 Y116.124 E.0219
G1 X96.735 Y115.632 E.01952
M204 P1000
G1 X97.022 Y115.315 F12000
G1 E-.64 F2100
;WIPE_START
G1 F9600
G1 X96.671 Y114.981 E-.13594
G1 X96.67 Y114.865 E-.02406
;WIPE_END
G1 Z.4 F720
G1 X110.496 Y106.397 F12000
G1 Z.2 F720
G1 E.8 F1500
M204 P600
;TYPE:Perimeter
G1 F1200
G1 X111.202 Y105.281 E.05019
G1 X111.392 Y104.898 E.01625
G1 X111.495 Y104.524 E.01474
G1 X111.504 Y104.191 E.01266
G1 X111.352 Y103.604 E.02305
G1 X112.547 Y103.606 E.04542
G1 X112.547 Y106.394 E.10596
G1 X110.556 Y106.396 E.07567
M204 P1000
G1 X109.557 Y106.925 F12000
M204 P600
G1 F1200
G1 X109.82 Y106.597 E.01598
G1 X110.357 Y105.772 E.03741
G1 X110.954 Y104.769 E.04436
G1 X111.055 Y104.326 E.01727
G1 X110.97 Y103.895 E.0167
G1 X110.796 Y103.58 E.01368
;WIDTH:0.546355
G1 X110.647 Y103.435 E.0087
;WIDTH:0.592711
G1 X110.499 Y103.289 E.0095
;WIDTH:0.639066
G1 X110.351 Y103.144 E.01027
G1 X110.479 Y103.131 E.00638
;WIDTH:0.593458
G1 X110.607 Y103.118 E.00589
;WIDTH:0.547849
G1 X110.735 Y103.104 E.00541
;WIDTH:0.50224
G1 X111.406 Y103.149 E.02568
;WIDTH:0.499999
G1 X113.004 Y103.149 E.06073
G1 X113.004 Y106.851 E.1407
G1 X110.482 Y106.854 E.09585
G1 X109.617 Y106.921 E.03297
M204 P1000
G1 E-.64 F2100
;WIPE_START
G1 F9600
G1 X109.82 Y106.597 E-.07946
G1 X110.031 Y106.272 E-.08054
;WIPE_END
G1 Z.4 F720
G1 X104.699 Y106.396 F12000
G1 Z.2 F720
M73 P1 R39
G1 E.8 F1500
M204 P600
G1 F1200
G1 X103.542 Y106.394 E.04397
G1 X103.542 Y103.605 E.106
G1 X105.536 Y103.602 E.07578
G1 X104.782 Y104.807 E.05402
G1 X104.581 Y105.34 E.02165
G1 X104.545 Y105.821 E.01833
G1 X104.684 Y106.338 E.02035
M204 P1000
G1 X105.727 Y106.857 F12000
M204 P600
;WIDTH:0.644666
G1 F1200
G1 X105.587 Y106.87 E.00704
;WIDTH:0.596444
G1 X105.446 Y106.883 E.00652
;WIDTH:0.548222
G1 X105.306 Y106.896 E.00591
;WIDTH:0.499999
G1 X104.657 Y106.851 E.02473
G1 X103.085 Y106.851 E.05975
G1 X103.085 Y103.148 E.14074
G1 X105.686 Y103.142 E.09885
G1 X106.498 Y103.064 E.031
G1 X105.925 Y103.843 E.03675
G1 X105.242 Y104.934 E.04892
G1 X105.093 Y105.22 E.01226
G1 X104.991 Y105.662 E.01724
G1 X105.076 Y106.093 E.0167
G1 X105.25 Y106.409 E.01371
;WIDTH:0.548222
G1 X105.409 Y106.558 E.00916
;WIDTH:0.596444
G1 X105.568 Y106.708 E.01006
;WIDTH:0.644666
G1 X105.684 Y106.816 E.00793
M204 P1000
G1 E-.64 F2100
;WIPE_START
G1 F9600
G1 X105.587 Y106.87 E-.02307
G1 X105.446 Y106.883 E-.02943
G1 X105.306 Y106.896 E-.02922
G1 X104.93 Y106.87 E-.07828
;WIPE_END
G1 Z.4 F720
G1 X107.693 Y100.337 F12000
G1 Z.2 F720
G1 E.8 F1500
M204 P600
;WIDTH:0.499999
G1 F1200
G1 X107.988 Y100.001 E.01699
G1 X108.231 Y99.855 E.01077
G1 X108.792 Y99.717 E.02196
G1 X109.206 Y99.713 E.01574
G1 X109.647 Y99.858 E.01764
G1 X110.054 Y100.149 E.01902
G1 X110.118 Y100.229 E.00389
G1 X111.402 Y100.131 E.04894
G1 X113.772 Y100.128 E.09007
G1 X114.412 Y100.233 E.02465
G1 X114.826 Y100.406 E.01705
G1 X115.202 Y100.659 E.01722
G1 X115.523 Y100.987 E.01744
G1 X115.767 Y101.364 E.01707
G1 X115.929 Y101.77 E.01661
G1 X116.025 Y102.382 E.02354
G1 X116.025 Y107.619 E.19904
G1 X115.92 Y108.259 E.02465
G1 X115.747 Y108.673 E.01705
G1 X115.495 Y109.048 E.01717
G1 X115.167 Y109.37 E.01747
G1 X114.581 Y109.72 E.02594
G1 X113.985 Y109.852 E.0232
G1 X113.771 Y109.872 E.00817
G1 X110.069 Y109.871 E.1407
G1 X109.396 Y109.826 E.02564
G1 X108.824 Y109.76 E.02188
G1 X108.416 Y109.642 E.01614
G1 X108.228 Y109.934 E.0132
G1 X107.948 Y110.164 E.01377
G1 X107.572 Y110.365 E.0162
G1 X107.229 Y110.436 E.01331
G1 X106.752 Y110.432 E.01813
G1 X106.243 Y110.245 E.02061
G1 X105.808 Y109.865 E.02195
G1 X105.746 Y109.774 E.00419
G1 X104.631 Y109.867 E.04252
G1 X102.318 Y109.872 E.08791
G1 X101.678 Y109.767 E.02465
G1 X101.263 Y109.594 E.01709
G1 X100.717 Y109.2 E.02559
G1 X100.323 Y108.636 E.02615
G1 X100.188 Y108.345 E.01219
G1 X100.125 Y108.044 E.01169
G1 X99.629 Y107.883 E.01982
G1 X99.277 Y107.605 E.01705
G1 X99.129 Y107.431 E.00868
G1 X98.887 Y106.953 E.02036
G1 X98.812 Y106.503 E.01734
G1 X98.812 Y103.506 E.1139
G1 X98.868 Y103.116 E.01497
G1 X99.067 Y102.665 E.01874
G1 X99.194 Y102.492 E.00816
G1 X99.606 Y102.146 E.02045
G1 X99.951 Y101.991 E.01437
G1 X100.126 Y101.961 E.00675
G1 X100.255 Y101.482 E.01885
G1 X100.595 Y100.952 E.02393
G1 X100.923 Y100.63 E.01747
G1 X101.509 Y100.28 E.02594
G1 X102.105 Y100.148 E.0232
G1 X102.318 Y100.128 E.00813
G1 X106.089 Y100.129 E.14332
G1 X107.113 Y100.197 E.039
G1 X107.635 Y100.323 E.02041
M204 P1000
G1 X107.899 Y100.929 F12000
M204 P600
G1 F1200
G1 X108.015 Y100.675 E.01061
G1 X108.27 Y100.36 E.0154
G1 X108.564 Y100.226 E.01228
G1 X109.008 Y100.153 E.0171
G1 X109.246 Y100.196 E.00919
G1 X109.469 Y100.279 E.00904
G1 X109.755 Y100.506 E.01388
G1 X109.953 Y100.802 E.01353
G1 X110.215 Y100.675 E.01107
G1 X111.321 Y100.592 E.04215
G1 X113.772 Y100.585 E.09315
G1 X114.322 Y100.681 E.02122
G1 X114.571 Y100.785 E.01026
G1 X114.946 Y101.038 E.01719
G1 X115.139 Y101.235 E.01048
G1 X115.383 Y101.612 E.01707
G1 X115.48 Y101.855 E.00994
G1 X115.568 Y102.382 E.02031
G1 X115.568 Y107.619 E.19904
G1 X115.472 Y108.169 E.02122
G1 X115.368 Y108.418 E.01026
G1 X115.115 Y108.793 E.01719
G1 X114.919 Y108.986 E.01045
G1 X114.416 Y109.293 E.0224
G1 X113.9 Y109.403 E.02005
G1 X113.771 Y109.415 E.00492
G1 X110.069 Y109.414 E.1407
G1 X109.428 Y109.37 E.02442
G1 X108.951 Y109.321 E.01822
G1 X108.461 Y109.179 E.01939
G1 X108.212 Y109.014 E.01135
G1 X107.987 Y109.478 E.0196
G1 X107.779 Y109.729 E.01239
G1 X107.412 Y109.937 E.01603
G1 X106.949 Y109.992 E.01772
G1 X106.68 Y109.937 E.01044
G1 X106.391 Y109.805 E.01208
G1 X106.115 Y109.504 E.01552
G1 X105.979 Y109.232 E.01156
G1 X105.721 Y109.317 E.01032
G1 X104.63 Y109.41 E.04162
G1 X102.318 Y109.415 E.08787
G1 X101.767 Y109.319 E.02126
G1 X101.519 Y109.215 E.01022
G1 X101.041 Y108.878 E.02223
G1 X100.707 Y108.388 E.02254
G1 X100.609 Y108.145 E.00996
G1 X100.522 Y107.629 E.01989
G1 X100.189 Y107.597 E.01271
G1 X99.836 Y107.476 E.01418
G1 X99.477 Y107.135 E.01882
G1 X99.332 Y106.848 E.01222
G1 X99.269 Y106.503 E.01333
G1 X99.269 Y103.506 E.1139
G1 X99.316 Y103.206 E.01154
G1 X99.436 Y102.936 E.01123
G1 X99.563 Y102.763 E.00816
G1 X99.823 Y102.549 E.0128
G1 X100.099 Y102.424 E.01152
G1 X100.519 Y102.381 E.01605
G1 X100.618 Y101.831 E.02124
G1 X100.721 Y101.582 E.01024
G1 X101.067 Y101.096 E.02267
G1 X101.548 Y100.771 E.02206
G1 X101.792 Y100.673 E.00999
G1 X102.318 Y100.585 E.02027
G1 X106.089 Y100.586 E.14332
G1 X107.081 Y100.653 E.03779
G1 X107.659 Y100.802 E.02269
G1 X107.846 Y100.87 E.00756
G1 X107.859 Y100.884 E.00073
M204 P1000
G1 X107.746 Y101.401 F12000
M204 P600
;TYPE:External perimeter
;WIDTH:0.497985
G1 F1200
G1 X107.721 Y101.491 E.00353
;WIDTH:0.463457
G1 X107.696 Y101.581 E.00327
;WIDTH:0.428929
G1 X107.208 Y102.363 E.02959
;WIDTH:0.475392
G1 X107.091 Y102.472 E.00575
;WIDTH:0.499999
G1 X106.588 Y102.596 E.01969
G1 X105.642 Y102.687 E.03612
G1 X102.628 Y102.692 E.11455
G1 X102.628 Y107.308 E.17544
G1 X104.657 Y107.309 E.07711
G1 X105.274 Y107.352 E.02351
G1 X105.655 Y107.383 E.01453
G1 X106.148 Y107.525 E.0195
G1 X106.259 Y107.598 E.00505
;WIDTH:0.498353
G1 X106.266 Y107.842 E.00924
;WIDTH:0.487169
G1 X106.103 Y108.213 E.01497
;WIDTH:0.520639
G1 X105.94 Y108.584 E.0161
G1 X105.802 Y108.813 E.01062
;WIDTH:0.500772
G1 X105.554 Y108.873 E.00971
;WIDTH:0.499999
G1 X104.676 Y108.952 E.0335
G1 X102.318 Y108.958 E.08962
G1 X101.816 Y108.858 E.01945
G1 X101.399 Y108.583 E.01898
G1 X101.091 Y108.14 E.02051
G1 X100.978 Y107.618 E.0203
G1 X100.978 Y107.174 E.01687
G1 X100.534 Y107.172 E.01687
G1 X100.235 Y107.132 E.01147
G1 X99.973 Y107.013 E.01094
G1 X99.777 Y106.743 E.01268
G1 X99.727 Y106.503 E.00932
G1 X99.727 Y103.506 E.1139
G1 X99.804 Y103.207 E.01173
G1 X100.018 Y102.962 E.01236
G1 X100.318 Y102.844 E.01225
G1 X100.978 Y102.835 E.02509
G1 X100.994 Y102.282 E.02103
G1 X101.1 Y101.838 E.01735
G1 X101.384 Y101.426 E.01902
G1 X101.838 Y101.133 E.02054
G1 X102.318 Y101.042 E.01857
G1 X106.089 Y101.043 E.14332
G1 X107.049 Y101.109 E.03657
G1 X107.637 Y101.276 E.02323
G1 X107.706 Y101.356 E.00402
M204 P1000
G1 X107.835 Y101.43 F12000
G1 E-.64 F2100
;WIPE_START
G1 F9600
G1 X107.721 Y101.491 E-.02823
G1 X107.696 Y101.581 E-.01941
G1 X107.41 Y102.04 E-.11236
;WIPE_END
G1 Z.4 F720
G1 X106.756 Y106.427 F12000
G1 Z.2 F720
G1 E.8 F1500
M204 P600
G1 F1200
G1 X106.186 Y106.428 E.02166
G1 X105.848 Y106.34 E.01327
G1 X105.537 Y106.031 E.01666
G1 X105.448 Y105.662 E.01443
G1 X105.557 Y105.292 E.01466
G1 X106.313 Y104.085 E.05413
G1 X106.885 Y103.31 E.03661
G1 X107.254 Y102.937 E.01994
G1 X107.394 Y102.752 E.00882
;WIDTH:0.464463
G1 X107.535 Y102.568 E.00813
;WIDTH:0.428929
G1 X108.023 Y101.786 E.02959
;WIDTH:0.463457
G1 X108.12 Y101.592 E.00758
;WIDTH:0.497985
G1 X108.217 Y101.399 E.00817
;WIDTH:0.499999
G1 X108.39 Y100.936 E.01879
G1 X108.601 Y100.69 E.01232
G1 X109.048 Y100.614 E.01723
G1 X109.372 Y100.758 E.01348
G1 X109.556 Y101.059 E.01341
;WIDTH:0.52169
G1 X109.577 Y101.366 E.01225
G1 X109.4 Y101.833 E.01988
;WIDTH:0.502624
G1 X109.31 Y102.318 E.01886
;WIDTH:0.499999
G1 X109.307 Y102.915 E.02269
G1 X109.242 Y103.561 E.02468
G1 X109.861 Y103.561 E.02353
G1 X110.201 Y103.65 E.01336
G1 X110.468 Y103.898 E.01385
G1 X110.591 Y104.272 E.01496
G1 X110.515 Y104.64 E.01428
G1 X109.969 Y105.53 E.03968
G1 X109.437 Y106.347 E.03705
G1 X108.801 Y107.081 E.03691
;WIDTH:0.497262
G1 X108.505 Y107.488 E.01901
;WIDTH:0.490084
G1 X108.082 Y108.165 E.02968
;WIDTH:0.499999
G1 X107.846 Y108.72 E.02292
G1 X107.576 Y109.278 E.02356
G1 X107.486 Y109.376 E.00506
G1 X107.184 Y109.523 E.01277
G1 X106.859 Y109.516 E.01235
G1 X106.632 Y109.416 E.00943
G1 X106.564 Y109.351 E.00358
;WIDTH:0.500772
G1 X106.402 Y109.064 E.01255
;WIDTH:0.520639
G1 X106.385 Y108.759 E.01213
G1 X106.565 Y108.291 E.01992
;WIDTH:0.498846
G1 X106.621 Y108.072 E.00857
;WIDTH:0.471326
G1 X106.677 Y107.853 E.00805
;WIDTH:0.471079
G1 X106.699 Y107.635 E.0078
;WIDTH:0.498353
G1 X106.722 Y107.417 E.0083
;WIDTH:0.499999
G1 X106.704 Y106.986 E.01639
G1 X106.75 Y106.487 E.01905
M204 P1000
G1 X106.407 Y106.623 F12000
G1 X106.164 Y106.967
M204 P600
;TYPE:Perimeter
;WIDTH:0.66611
